X: 630
T: O'Carolan's Devotion
B: O'Neill's 630
Z: 1999 by John Chambers <jc@eddie.mit.edu> http://eddie.mit.edu/~jc/music/abc/
N: "With feeling"
N: "1st setting"
N: Bar 25 had C6 rather than C4, clearly a typo.
N: k represents a ">" stress.
N: M represents a "_" emphasis.
N: H represents a fermata (hold).
N: T represents a trill.
M: C
L: 1/8
K:Dm
d3e f2ed|d3e c2BA \
|c3A GzFE|D3C C4|
|D3E FzFG|A3F GzBA \
|d3A GFzED|D3E D4||
||"f"kD2 kC2 CkB,2 kC2|C/D/z C/B,/z A,/G,/z "p"HA,2 \
|"f"kD2 kD2 D3E|D/C/z B,/C/z "p"A,4|
|"f"kF2 kF2 F3G|F/E/z D/E/z "p"C4 \
|"f"kc2 kc2 dc3|d3e f2ed|
|d3e f2A2|A2 BAG F/G/z A/B/z \
|"f"kc2 kE2 kE2 FE|MDMEMFMG A2D2|
|DE "p"DCB, A,2A,2|"pp"B,2 A,6 \
|A3B czce|c3e .d2.d2|
|e/d/z .c.B.A.G TE2|D3C C4 \
|D3E FzFG|A3F G2BA|
|d3A GF2ED|D3E D4|]
